2 Export/Icons/Brands/Google.svg

<svg xmlns="http://www.w3.org/2000/svg" xmlns:xlink="http://www.w3.org/1999/xlink" width="24" height="24" viewBox="0 0 24 24">
  <defs>
    <path id="google-a" d="M12,10.71375 L12,13.8 L17.1045,13.8 C16.89825,15.12375 15.5625,17.6805 12,17.6805 C8.92875,17.6805 6.42075,15.13875 6.42075,12 C6.42075,8.86125 8.9295,6.3195 12,6.3195 C13.7475,6.3195 14.91825,7.06125 15.58875,7.70625 L18.02925,5.35275 C16.46175,3.8895 14.42925,3 12,3 C7.02375,3 3,7.02375 3,12 C3,16.97625 7.02375,21 12,21 C17.1945,21 20.64,17.34825 20.64,12.2055 C20.64,11.6145 20.57625,11.163 20.49825,10.71375 L12,10.71375 Z"/>
  </defs>
  <g fill="none" fill-rule="evenodd">
    <polygon points="0 0 24 0 24 24 0 24"/>
    <mask id="google-b" fill="#fff">
      <use xlink:href="#google-a"/>
    </mask>
    <use fill="#000" xlink:href="#google-a"/>
    <g fill="#000" mask="url(#google-b)">
      <rect width="24" height="24"/>
    </g>
  </g>
</svg>

<svg xmlns="http://www.w3.org/2000/svg" xmlns:xlink="http://www.w3.org/1999/xlink" width="24" height="24" viewBox="0 0 24 24">
  <defs>
    <path id="google-a" d="M12 10.714V13.8h5.105c-.207 1.324-1.543 3.88-5.105 3.88-3.071 0-5.58-2.541-5.58-5.68S8.93 6.32 12 6.32c1.748 0 2.918.741 3.589 1.386l2.44-2.353C16.462 3.89 14.43 3 12 3c-4.976 0-9 4.024-9 9s4.024 9 9 9c5.195 0 8.64-3.652 8.64-8.794a8.2 8.2 0 0 0-.142-1.492H12z"/>
  </defs>
  <g fill="none" fill-rule="evenodd">
    <polygon points="0 0 24 0 24 24 0 24"/>
    <mask id="google-b" fill="#fff">
      <use xlink:href="#google-a"/>
    </mask>
    <use fill="#000" xlink:href="#google-a"/>
    <g fill="#000" mask="url(#google-b)">
      <rect width="24" height="24"/>
    </g>
  </g>
</svg>
